packages/tokens/icons/coaching/size16Px.svg

<svg viewBox="0 0 32 32" fill="none" xmlns="http://www.w3.org/2000/svg" width="1em" height="1em"><mask id="path-1-inside-1_1748_8577" fill="currentColor"><path fill-rule="evenodd" clip-rule="evenodd" d="M19.6128 18.8399C18.6741 19.0046 18.023 19.8318 17.694 20.7262C16.9911 22.637 15.1547 24 13 24C10.2386 24 8 21.7614 8 19C8 16.2386 10.2386 14 13 14L21 14C21.5523 14 22 14.4477 22 15V17.5812C22 18.0668 21.6511 18.4823 21.1728 18.5662L19.6128 18.8399Z"/></mask><path d="M21.1728 18.5662L21 17.5812L21.1728 18.5662ZM19.6128 18.8399L19.44 17.8549L19.6128 18.8399ZM16.7555 20.381C16.1926 21.9111 14.7222 23 13 23V25C15.5872 25 17.7896 23.363 18.6325 21.0715L16.7555 20.381ZM13 23C10.7909 23 9 21.2091 9 19H7C7 22.3137 9.68629 25 13 25V23ZM9 19C9 16.7909 10.7909 15 13 15V13C9.68629 13 7 15.6863 7 19H9ZM13 15L21 15V13L13 13V15ZM21 15V15H23C23 13.8954 22.1046 13 21 13V15ZM21 15V17.5812H23V15H21ZM21 17.5812V17.5812L21.3456 19.5511C22.3022 19.3833 23 18.5525 23 17.5812H21ZM21 17.5812L19.44 17.8549L19.7856 19.8248L21.3456 19.5511L21 17.5812ZM18.6325 21.0715C18.9066 20.3264 19.3563 19.9001 19.7856 19.8248L19.44 17.8549C17.9918 18.109 17.1395 19.3372 16.7555 20.381L18.6325 21.0715Z" fill="currentColor" mask="url(#path-1-inside-1_1748_8577)"/><circle cx="13" cy="19" r="2.5" stroke="currentColor"/><circle cx="9.5" cy="14.5" r="1" stroke="currentColor"/><path d="M16.5 15.0881L16.5 16.5" stroke="currentColor" stroke-linecap="round"/><path d="M19.5 14.5L19.5 18" stroke="currentColor" stroke-linecap="round"/></svg>

<svg xmlns="http://www.w3.org/2000/svg" fill="none" viewBox="0 0 32 32" width="1em" height="1em"><mask id="iconsCoachingSize16Px__a" fill="#fff"><path fill-rule="evenodd" d="M19.613 18.84c-.939.165-1.59.992-1.919 1.886A5.002 5.002 0 0 1 8 19a5 5 0 0 1 5-5h8a1 1 0 0 1 1 1v2.581a1 1 0 0 1-.827.985l-1.56.274Z" clip-rule="evenodd"/></mask><path fill="currentColor" d="M21.173 18.566 21 17.581l.173.985Zm-1.56.274-.173-.985.173.985Zm-2.857 1.541A4.002 4.002 0 0 1 13 23v2a6.002 6.002 0 0 0 5.633-3.928l-1.877-.691ZM13 23a4 4 0 0 1-4-4H7a6 6 0 0 0 6 6v-2Zm-4-4a4 4 0 0 1 4-4v-2a6 6 0 0 0-6 6h2Zm4-4h8v-2h-8v2Zm8 0h2a2 2 0 0 0-2-2v2Zm0 0v2.581h2V15h-2Zm0 2.581.346 1.97A2 2 0 0 0 23 17.581h-2Zm0 0-1.56.274.346 1.97 1.56-.274-.346-1.97Zm-2.367 3.49c.274-.745.723-1.17 1.153-1.246l-.346-1.97c-1.448.254-2.3 1.482-2.684 2.526l1.877.69Z" mask="url(#iconsCoachingSize16Px__a)"/><circle cx="13" cy="19" r="2.5" stroke="currentColor"/><circle cx="9.5" cy="14.5" r="1" stroke="currentColor"/><path stroke="currentColor" stroke-linecap="round" d="M16.5 15.088V16.5m3-2V18"/></svg>
